sources/design/Outline/ഺ.svg

<svg:svg xmlns:cc="http://creativecommons.org/ns#" xmlns:dc="http://purl.org/dc/elements/1.1/" xmlns:inkscape="http://www.inkscape.org/namespaces/inkscape" xmlns:rdf="http://www.w3.org/1999/02/22-rdf-syntax-ns#" xmlns:sodipodi="http://sodipodi.sourceforge.net/DTD/sodipodi-0.dtd" xmlns:svg="http://www.w3.org/2000/svg" xml:space="preserve" width="1000" height="1000" version="1.1" style="clip-rule:evenodd;fill-rule:evenodd;image-rendering:optimizeQuality;shape-rendering:geometricPrecision;text-rendering:geometricPrecision" viewBox="0 0 1000 1000" id="svg10" sodipodi:docname="ഺ.svg" inkscape:version="1.1.1 (3bf5ae0d25, 2021-09-20)"><svg:metadata id="metadata14"><rdf:RDF><cc:Work rdf:about=""><dc:format>image/svg+xml</dc:format><dc:type rdf:resource="http://purl.org/dc/dcmitype/StillImage" /></cc:Work></rdf:RDF></svg:metadata><sodipodi:namedview pagecolor="#ffffff" bordercolor="#666666" borderopacity="1" objecttolerance="10" gridtolerance="10" guidetolerance="10" inkscape:pageopacity="0" inkscape:pageshadow="2" inkscape:window-width="1920" inkscape:window-height="1009" id="namedview12" showgrid="false" inkscape:zoom="0.3001346" inkscape:cx="604.72868" inkscape:cy="756.32733" inkscape:window-x="0" inkscape:window-y="0" inkscape:window-maximized="1" inkscape:current-layer="svg10" showguides="true" inkscape:guide-bbox="true" inkscape:document-rotation="0" inkscape:pagecheckerboard="0"><sodipodi:guide position="0,1000" orientation="0,1" id="guide16" inkscape:label="" inkscape:locked="true" inkscape:color="rgb(0,0,255)" /><sodipodi:guide position="1763.3122,2036.1693" orientation="1000,0" id="guide18" /><sodipodi:guide position="0,200" orientation="0,1" id="guide20" inkscape:label="base" inkscape:locked="true" inkscape:color="rgb(0,0,255)" /><inkscape:grid type="xygrid" id="grid24" originx="-473.37552" originy="-489.69235" /><sodipodi:guide position="0,0" orientation="0,1" id="guide34" inkscape:label="bottom" inkscape:locked="true" inkscape:color="rgb(0,0,255)" /><sodipodi:guide position="225.05109,1693.3186" orientation="0,1" id="guide44" inkscape:label="" inkscape:locked="false" inkscape:color="rgb(0,0,255)" /><sodipodi:guide position="0,900" orientation="0,1" id="guide46" inkscape:label="" inkscape:locked="true" inkscape:color="rgb(0,0,255)" /><sodipodi:guide position="505.26739,424.66678" orientation="-1,0" id="guide841" inkscape:label="width" inkscape:locked="false" inkscape:color="rgb(0,0,255)" /></sodipodi:namedview>
 <svg:defs id="defs4"><inkscape:path-effect effect="fillet_chamfer" id="path-effect850" is_visible="true" lpeversion="1" satellites_param="F,0,0,1,0,22.637598,0,1 @ F,0,0,1,0,22.637598,0,1 @ F,0,0,1,0,0,0,1 @ F,0,0,1,0,0,0,1 @ F,0,0,1,0,0,0,1 @ F,0,0,1,0,0,0,1 @ F,0,0,1,0,0,0,1 @ F,0,0,1,0,0,0,1 @ F,0,0,1,0,22.637598,0,1 @ F,0,1,1,0,22.637598,0,1 @ F,0,0,1,0,0,0,1 @ F,0,0,1,0,17.540776,0,1 @ F,0,0,1,0,12.456712,0,1 @ F,0,0,1,0,0,0,1 @ F,0,0,1,0,0,0,1 | F,0,0,1,0,0,0,1 @ F,0,0,1,0,0,0,1 @ F,0,0,1,0,0,0,1 @ F,0,0,1,0,22.637598,0,1 @ F,0,0,1,0,22.637598,0,1 @ F,0,0,1,0,0,0,1" unit="px" method="auto" mode="F" radius="0" chamfer_steps="1" flexible="false" use_knot_distance="true" apply_no_radius="true" apply_with_radius="true" only_selected="true" hide_knots="false" /><inkscape:path-effect effect="spiro" id="path-effect854" is_visible="true" lpeversion="1" /><inkscape:path-effect effect="spiro" id="path-effect851" is_visible="true" lpeversion="1" />
  <svg:style type="text/css" id="style2">
   
    .fil0 {fill:#EF7F1A;fill-rule:nonzero}
   
  </svg:style>
 <inkscape:path-effect effect="spiro" id="path-effect1214" is_visible="true" lpeversion="1" /><inkscape:path-effect effect="spiro" id="path-effect1195" is_visible="true" lpeversion="1" /><inkscape:path-effect effect="spiro" id="path-effect992" is_visible="true" lpeversion="1" /><inkscape:path-effect effect="spiro" id="path-effect1060" is_visible="true" lpeversion="1" /><inkscape:path-effect effect="spiro" id="path-effect1047" is_visible="true" lpeversion="1" /><inkscape:path-effect effect="spiro" id="path-effect1085" is_visible="true" lpeversion="1" /><inkscape:path-effect effect="spiro" id="path-effect1286" is_visible="true" lpeversion="1" /><inkscape:path-effect effect="spiro" id="path-effect1305" is_visible="true" lpeversion="1" /></svg:defs>
 
<svg:g id="path852"><svg:path style="color:#000000;clip-rule:nonzero;fill:#1a5fb4;fill-rule:nonzero;stroke-linecap:round;stroke-linejoin:round;-inkscape-stroke:none;paint-order:fill stroke markers;shape-rendering:auto" d="M 104.5918,73.972656 C 80.13534,73.80453 56.603087,92.81354 53.326172,117.56445 C 47.725725,159.86527 41.533566,202.08728 34.751953,244.21484 C 19.470601,339.14303 1.0740221,434.21068 -14.21875,530.45508 C -16.618124,545.55543 -18.937481,560.67014 -21.177734,575.7949199999999 C -23.632847,592.37029 -21.610099,603.3168 -13.564453,617.9082 L 15.779297,671.125 C 27.647346,692.64863 46.369583,702.44625 70.693359,700.24023 C 107.65747,696.88782 144.68673,694.26006 181.75391000000002,692.36133 C 194.13798000000003,691.7269699999999 206.53437000000002,691.37604 218.92578000000003,690.9042999999999 C 219.33205000000004,707.7333899999999 219.23085000000003,724.5748199999999 218.15625000000003,741.3691399999999 C 215.96667000000002,775.5888799999999 210.69574000000003,809.6266799999999 202.44141000000002,842.91406 C 199.26216000000002,855.73505 200.70420000000001,872.6470599999999 212.13281,884.80273 C 223.56143,896.95841 240.91867000000002,899.45435 254.0293,896.69531 L 366.11133,873.1093699999999 C 379.83226,870.2219099999999 393.21526,860.8166799999999 399.57617,847.5371099999999 C 405.93709,834.2575399999998 405.02826,818.9493499999999 399.56817,806.6171899999998 C 387.6218,779.6341799999998 380.14833,750.5956999999999 377.64239000000003,721.2324199999998 C 376.73388000000006,710.5870499999999 376.55240000000003,699.8753599999998 376.93536000000006,689.1796899999998 C 402.2854300000001,689.6276499999998 427.6300800000001,690.3292999999999 452.9587900000001,691.4570299999998 C 481.3575900000001,692.7214499999998 505.3687900000001,673.7670199999998 510.4470800000001,645.6328099999998 L 524.4353600000001,568.1464799999999 C 526.8269600000001,554.8967599999999 523.7964900000001,537.7297899999999 511.4451200000001,526.6386699999999 C 499.0937500000001,515.5475499999999 482.0466600000001,514.3570699999999 469.1834000000001,517.91797 C 456.13060000000013,521.53134 443.0012100000001,524.8663 429.8064500000001,527.9199199999999 C 355.9111800000001,545.02127 279.9284300000001,553.26032 204.0662200000001,552.4628899999999 C 178.9959600000001,552.19936 153.9339600000001,550.9490999999999 128.9587900000001,548.7246099999999 C 132.7646800000001,517.4810199999998 137.6554100000001,486.37009999999987 143.6560600000001,455.47460999999987 C 160.8406000000001,366.9967399999999 187.0196000000001,280.4301099999999 224.54473000000013,199.33983999999987 C 229.67047000000014,188.26333999999986 235.00763000000012,177.28402999999986 240.55450000000013,166.41210999999987 C 246.88551000000012,154.00325999999987 248.20216000000013,138.20075999999986 242.14629000000014,124.71874999999987 C 236.09043000000014,111.23673999999987 223.14057000000014,101.56276999999987 209.45098000000013,98.23046899999987 L 115.07208000000013,75.25781199999987 C 111.59693000000013,74.41189699999987 108.08539000000013,73.99667399999987 104.59161000000013,73.97265599999987 L 104.5918,73.972656 M 111.32031,136.0957 L 180.41406,152.91602 C 176.94461,159.97748 173.39606,167.00025 170.0918,174.14062 C 130.20063,260.34381 102.71933,351.55685000000005 84.757812,444.03516 C 78.494247,476.28432000000004 73.384871,508.75455 69.410156,541.36328 C 64.296103,540.58356 59.161136,539.94048 54.060547,539.07812 A 30.003,30.003 0.0 0,0 45.080078,539.61914 C 60.154738,444.78392 78.520217,349.83804 93.988281,253.75 C 100.28882,214.61088 106.02594,175.38355 111.32031,136.0957 M 460.98437,581.89062 L 452.04687,631.39844 C 430.00731,630.44448 407.95779,629.7097600000001 385.90234,629.25977 C 386.76815,626.03904 387.64394999999996,622.82009 388.63086,619.63672 A 30.003,30.003 0.0 0,0 386.84961,597.72266 C 405.77659,594.4642200000001 424.61897,590.70615 443.33398,586.375 C 449.24849,585.00622 455.09551,583.36552 460.98437,581.89062 M 123.19727,608.44727 C 149.8767,610.83518 176.64851,612.17741 203.43555,612.45898 C 206.23047,612.48838 209.02530000000002,612.41558 211.82031,612.42188 C 212.82742000000002,618.60408 213.55173000000002,624.82814 214.35547,631.04103 C 202.46495,631.5031299999999 190.56954,631.8307199999999 178.68555,632.4394599999999 C 159.53926,633.4202099999999 140.40228000000002,634.59817 121.2793,635.95899 C 121.79118000000001,626.78043 122.49600000000001,617.6135499999999 123.19727,608.44728 L 123.19727,608.44727 M 67.496094,639.91797 C 67.498194,639.98617 67.621403,640.20753 67.634766,640.29297 C 67.526097,640.30297 67.417262,640.31057 67.308594,640.3202699999999 L 67.136719,640.00973 C 67.208289,639.97413 67.442998,639.9533299999999 67.496094,639.91793 L 67.496094,639.91797 M 316.92578000000003,688.67187 C 316.54183,701.22545 316.78987,713.80211 317.85937,726.33398 C 320.52508,757.56929 327.74369,788.31877 339.13086,817.47266 L 266.17969,832.82422 C 272.13948,803.9343299999999 276.14911,774.6447499999999 278.03319999999997,745.19922 C 279.22495,726.5740999999999 279.56726,707.9022 279.11132999999995,689.25 C 291.71602999999993,689.03799 304.31934999999993,688.71582 316.92578,688.67187 L 316.92578000000003,688.67187" id="path24302" /></svg:g></svg:svg>

<svg:svg xmlns:cc="http://creativecommons.org/ns#" xmlns:dc="http://purl.org/dc/elements/1.1/" xmlns:inkscape="http://www.inkscape.org/namespaces/inkscape" xmlns:rdf="http://www.w3.org/1999/02/22-rdf-syntax-ns#" xmlns:sodipodi="http://sodipodi.sourceforge.net/DTD/sodipodi-0.dtd" xmlns:svg="http://www.w3.org/2000/svg" xml:space="preserve" width="1000" height="1000" version="1.1" style="clip-rule:evenodd;fill-rule:evenodd;image-rendering:optimizeQuality;shape-rendering:geometricPrecision;text-rendering:geometricPrecision" viewBox="0 0 1000 1000" id="svg10" sodipodi:docname="ഺ.svg" inkscape:version="1.1.1 (3bf5ae0d25, 2021-09-20)"><svg:metadata id="metadata14"><rdf:RDF><cc:Work rdf:about=""><dc:format>image/svg+xml</dc:format><dc:type rdf:resource="http://purl.org/dc/dcmitype/StillImage" /></cc:Work></rdf:RDF></svg:metadata><sodipodi:namedview pagecolor="#ffffff" bordercolor="#666666" borderopacity="1" objecttolerance="10" gridtolerance="10" guidetolerance="10" inkscape:pageopacity="0" inkscape:pageshadow="2" inkscape:window-width="1920" inkscape:window-height="1009" id="namedview12" showgrid="false" inkscape:zoom="0.3001346" inkscape:cx="604.72868" inkscape:cy="756.32733" inkscape:window-x="0" inkscape:window-y="0" inkscape:window-maximized="1" inkscape:current-layer="svg10" showguides="true" inkscape:guide-bbox="true" inkscape:document-rotation="0" inkscape:pagecheckerboard="0"><sodipodi:guide position="0,1000" orientation="0,1" id="guide16" inkscape:label="" inkscape:locked="true" inkscape:color="rgb(0,0,255)" /><sodipodi:guide position="1763.3122,2036.1693" orientation="1000,0" id="guide18" /><sodipodi:guide position="0,200" orientation="0,1" id="guide20" inkscape:label="base" inkscape:locked="true" inkscape:color="rgb(0,0,255)" /><inkscape:grid type="xygrid" id="grid24" originx="-473.37552" originy="-489.69235" /><sodipodi:guide position="0,0" orientation="0,1" id="guide34" inkscape:label="bottom" inkscape:locked="true" inkscape:color="rgb(0,0,255)" /><sodipodi:guide position="225.05109,1693.3186" orientation="0,1" id="guide44" inkscape:label="" inkscape:locked="false" inkscape:color="rgb(0,0,255)" /><sodipodi:guide position="0,900" orientation="0,1" id="guide46" inkscape:label="" inkscape:locked="true" inkscape:color="rgb(0,0,255)" /><sodipodi:guide position="505.26739,424.66678" orientation="-1,0" id="guide841" inkscape:label="width" inkscape:locked="false" inkscape:color="rgb(0,0,255)" /></sodipodi:namedview>
 <svg:defs id="defs4"><inkscape:path-effect effect="fillet_chamfer" id="path-effect850" is_visible="true" lpeversion="1" satellites_param="F,0,0,1,0,22.637598,0,1 @ F,0,0,1,0,22.637598,0,1 @ F,0,0,1,0,0,0,1 @ F,0,0,1,0,0,0,1 @ F,0,0,1,0,0,0,1 @ F,0,0,1,0,0,0,1 @ F,0,0,1,0,0,0,1 @ F,0,0,1,0,0,0,1 @ F,0,0,1,0,22.637598,0,1 @ F,0,1,1,0,22.637598,0,1 @ F,0,0,1,0,0,0,1 @ F,0,0,1,0,17.540776,0,1 @ F,0,0,1,0,12.456712,0,1 @ F,0,0,1,0,0,0,1 @ F,0,0,1,0,0,0,1 | F,0,0,1,0,0,0,1 @ F,0,0,1,0,0,0,1 @ F,0,0,1,0,0,0,1 @ F,0,0,1,0,22.637598,0,1 @ F,0,0,1,0,22.637598,0,1 @ F,0,0,1,0,0,0,1" unit="px" method="auto" mode="F" radius="0" chamfer_steps="1" flexible="false" use_knot_distance="true" apply_no_radius="true" apply_with_radius="true" only_selected="true" hide_knots="false" /><inkscape:path-effect effect="spiro" id="path-effect854" is_visible="true" lpeversion="1" /><inkscape:path-effect effect="spiro" id="path-effect851" is_visible="true" lpeversion="1" />
  <svg:style type="text/css" id="style2">
   
    .fil0 {fill:#EF7F1A;fill-rule:nonzero}
   
  </svg:style>
 <inkscape:path-effect effect="spiro" id="path-effect1214" is_visible="true" lpeversion="1" /><inkscape:path-effect effect="spiro" id="path-effect1195" is_visible="true" lpeversion="1" /><inkscape:path-effect effect="spiro" id="path-effect992" is_visible="true" lpeversion="1" /><inkscape:path-effect effect="spiro" id="path-effect1060" is_visible="true" lpeversion="1" /><inkscape:path-effect effect="spiro" id="path-effect1047" is_visible="true" lpeversion="1" /><inkscape:path-effect effect="spiro" id="path-effect1085" is_visible="true" lpeversion="1" /><inkscape:path-effect effect="spiro" id="path-effect1286" is_visible="true" lpeversion="1" /><inkscape:path-effect effect="spiro" id="path-effect1305" is_visible="true" lpeversion="1" /></svg:defs>
 
<svg:g id="path852"><svg:path style="color:#000000;clip-rule:nonzero;fill:#1a5fb4;fill-rule:nonzero;stroke-linecap:round;stroke-linejoin:round;-inkscape-stroke:none;shape-rendering:auto" d="M 104.5918,73.972656 C 80.13534,73.80453 56.603087,92.81354 53.326172,117.56445 47.725725,159.86527 41.533566,202.08728 34.751953,244.21484 19.470601,339.14303 1.0740221,434.21068 -14.21875,530.45508 c -2.399374,15.10035 -4.718731,30.21506 -6.958984,45.33984 -2.455113,16.57537 -0.432365,27.52188 7.613281,42.11328 l 29.34375,53.2168 c 11.868049,21.52363 30.590286,31.32125 54.914062,29.11523 36.964111,-3.35241 73.993371,-5.98017 111.060551,-7.8789 12.38407,-0.63436 24.78046,-0.98529 37.17187,-1.45703 0.40627,16.82909 0.30507,33.67052 -0.76953,50.46484 -2.18958,34.21974 -7.46051,68.25754 -15.71484,101.54492 -3.17925,12.82099 -1.73721,29.733 9.6914,41.88867 11.42862,12.15568 28.78586,14.65162 41.89649,11.89258 l 112.08203,-23.58594 c 13.72093,-2.88746 27.10393,-12.29269 33.46484,-25.57226 6.36092,-13.27957 5.45209,-28.58776 -0.008,-40.91992 -11.94637,-26.98301 -19.41984,-56.02149 -21.92578,-85.38477 -0.90851,-10.64537 -1.08999,-21.35706 -0.70703,-32.05273 25.35007,0.44796 50.69472,1.14961 76.02343,2.27734 28.3988,1.26442 52.41,-17.69001 57.48829,-45.82422 l 13.98828,-77.48633 c 2.3916,-13.24972 -0.63887,-30.41669 -12.99024,-41.50781 -12.35137,-11.09112 -29.39846,-12.2816 -42.26172,-8.7207 -13.0528,3.61337 -26.18219,6.94833 -39.37695,10.00195 -73.89527,17.10135 -149.87802,25.3404 -225.74023,24.54297 -25.07026,-0.26353 -50.13226,-1.51379 -75.10743,-3.73828 3.80589,-31.24359 8.69662,-62.35451 14.69727,-93.25 17.18454,-88.47787 43.36354,-175.0445 80.88867,-256.13477 5.12574,-11.0765 10.4629,-22.05581 16.00977,-32.92773 6.33101,-12.40885 7.64766,-28.21135 1.59179,-41.69336 -6.05586,-13.48201 -19.00572,-23.15598 -32.69531,-26.488281 l -94.3789,-22.972657 c -3.47515,-0.845915 -6.98669,-1.261138 -10.48047,-1.285156 z m 6.72851,62.123044 69.09375,16.82032 c -3.46945,7.06146 -7.018,14.08423 -10.32226,21.2246 -39.89117,86.20319 -67.37247,177.41623 -85.333988,269.89454 -6.263565,32.24916 -11.372941,64.71939 -15.347656,97.32812 -5.114053,-0.77972 -10.24902,-1.4228 -15.349609,-2.28516 a 30.003,30.003 0 0 0 -8.980469,0.54102 C 60.154738,444.78392 78.520217,349.83804 93.988281,253.75 100.28882,214.61088 106.02594,175.38355 111.32031,136.0957 Z m 349.66406,445.79492 -8.9375,49.50782 c -22.03956,-0.95396 -44.08908,-1.68868 -66.14453,-2.13867 0.86581,-3.22073 1.74161,-6.43968 2.72852,-9.62305 a 30.003,30.003 0 0 0 -1.78125,-21.91406 c 18.92698,-3.25844 37.76936,-7.01651 56.48437,-11.34766 5.91451,-1.36878 11.76153,-3.00948 17.65039,-4.48438 z m -337.7871,26.55665 c 26.67943,2.38791 53.45124,3.73014 80.23828,4.01171 2.79492,0.0294 5.58975,-0.0434 8.38476,-0.0371 1.00711,6.1822 1.73142,12.40626 2.53516,18.61915 -11.89052,0.4621 -23.78593,0.78969 -35.66992,1.39843 -19.14629,0.98075 -38.28327,2.15871 -57.40625,3.51953 0.51188,-9.17856 1.2167,-18.34544 1.91797,-27.51171 z m -55.701176,31.4707 c 0.0021,0.0682 0.125309,0.28956 0.138672,0.375 -0.108669,0.01 -0.217504,0.0176 -0.326172,0.0273 l -0.171875,-0.31054 c 0.07157,-0.0356 0.306279,-0.0564 0.359375,-0.0918 z m 249.429686,48.7539 c -0.38395,12.55358 -0.13591,25.13024 0.93359,37.66211 2.66571,31.23531 9.88432,61.98479 21.27149,91.13868 l -72.95117,15.35156 c 5.95979,-28.88989 9.96942,-58.17947 11.85351,-87.625 1.19175,-18.62512 1.53406,-37.29702 1.07813,-55.94922 12.6047,-0.21201 25.20802,-0.53418 37.81445,-0.57813 z" id="path24220" /></svg:g></svg:svg>
